X:10
T:Reel
C:Henrik Norbeck
R:reel
N:August -92
M:C|
K:Bm
B2AF BFAF|EDEF ABAF|B2AF BFAF|EFAF ~B3z:|
|:f2ec dBcB|~A3B AFE2|1 fcec d2cB|cffe cB~B2:|2 cffe cddc|BAFA ~B3A||
Bdfd adfd|ec~c2 Ac~c2|Bdfd adfd|edcd ~B3A|
Bdfd adfd|ec~c2 ABce|f2ec dBcA|FBBA ~B3z||
